assets/img/braze_icons/usb-flash-drive.svg

<svg fill="none" height="24" viewBox="0 0 24 24" width="24" xmlns="http://www.w3.org/2000/svg"><g fill="#801ed7"><path d="m10 4.00001c.5523 0 1 .44771 1 1v1c0 .55228-.4477 1-1 1-.55228 0-.99999-.44772-.99999-1v-1c0-.55229.44771-1 .99999-1z"/><path d="m15 5.00001c0-.55229-.4477-1-1-1s-1 .44771-1 1v1c0 .55228.4477 1 1 1s1-.44772 1-1z"/><path clip-rule="evenodd" d="m7.56811 1h8.86379c.2524-.000027.4982-.000057.7063.01695.2286.01868.4984.06274.7698.20104.3763.19175.6823.49771.874.87403.1383.27143.1824.54116.2011.76976.017.20812.0169.45386.0169.7062v4.61027c.1219.03922.2427.08794.362.14873.5645.28762 1.0234.74656 1.311 1.31105.1928.37837.2641.77157.2964 1.16697.0306.3745.0306.8293.0306 1.3564v5.0799c0 .805 0 1.4693-.0442 2.0105-.0459.5621-.1445 1.0788-.3918 1.5642-.3835.7526-.9954 1.3645-1.748 1.748-.4854.2473-1.0021.3459-1.5642.3918-.5412.0442-1.2055.0442-2.0104.0442h-6.48272c-.80495 0-1.46932 0-2.0105-.0442-.5621-.0459-1.0788-.1445-1.56414-.3918-.75265-.3835-1.36457-.9954-1.74806-1.748-.24729-.4854-.34586-1.0021-.39178-1.5642-.04422-.5412-.04421-1.2055-.0442-2.0104v-5.0799c-.00002-.5272-.00003-.982.03057-1.3565.0323-.3954.10362-.7886.29641-1.16697.28762-.56449.74656-1.02343 1.31105-1.31105.11932-.06079.24011-.10951.36198-.14873l-.00001-4.61014c-.00003-.25238-.00006-.49818.01695-.70633.01868-.2286.06275-.49833.20104-.76976.19175-.37632.49771-.68228.87403-.87403.27143-.1383.54116-.18236.76976-.20104.20815-.017007.45395-.016977.70633-.01695zm-.5681 7.00003c.05303-.00003.10685-.00003.16145-.00003h9.67704c.0546 0 .1085 0 .1615.00003v-4.40002c0-.29653-.0008-.45879-.0103-.57537l-.0011-.01319-.0132-.00114c-.1166-.00953-.2789-.0103-.5754-.0103h-8.79999c-.29653 0-.45878.00077-.57537.0103l-.01319.00114-.00114.01319c-.00953.11658-.0103.27884-.0103.57537z" fill-rule="evenodd"/></g></svg>

<svg width="24" height="24" viewBox="0 0 24 24" fill="none" xmlns="http://www.w3.org/2000/svg">
<path d="M10 4.00001C10.5523 4.00001 11 4.44772 11 5.00001V6.00001C11 6.55229 10.5523 7.00001 10 7.00001C9.44772 7.00001 9.00001 6.55229 9.00001 6.00001V5.00001C9.00001 4.44772 9.44772 4.00001 10 4.00001Z" fill="#801ED7"/>
<path d="M15 5.00001C15 4.44772 14.5523 4.00001 14 4.00001C13.4477 4.00001 13 4.44772 13 5.00001V6.00001C13 6.55229 13.4477 7.00001 14 7.00001C14.5523 7.00001 15 6.55229 15 6.00001V5.00001Z" fill="#801ED7"/>
<path fill-rule="evenodd" clip-rule="evenodd" d="M7.56811 1H16.4319C16.6843 0.999973 16.9301 0.999943 17.1382 1.01695C17.3668 1.03563 17.6366 1.07969 17.908 1.21799C18.2843 1.40974 18.5903 1.7157 18.782 2.09202C18.9203 2.36345 18.9644 2.63318 18.9831 2.86178C19.0001 3.0699 19 3.31564 19 3.56798L19 8.17825C19.1219 8.21747 19.2427 8.26619 19.362 8.32698C19.9265 8.6146 20.3854 9.07354 20.673 9.63803C20.8658 10.0164 20.9371 10.4096 20.9694 10.805C21 11.1795 21 11.6343 21 12.1614V17.2413C21 18.0463 21 18.7106 20.9558 19.2518C20.9099 19.8139 20.8113 20.3306 20.564 20.816C20.1805 21.5686 19.5686 22.1805 18.816 22.564C18.3306 22.8113 17.8139 22.9099 17.2518 22.9558C16.7106 23 16.0463 23 15.2414 23H8.75868C7.95373 23 7.28936 23 6.74818 22.9558C6.18608 22.9099 5.66938 22.8113 5.18404 22.564C4.43139 22.1805 3.81947 21.5686 3.43598 20.816C3.18869 20.3306 3.09012 19.8139 3.0442 19.2518C2.99998 18.7106 2.99999 18.0463 3 17.2414V12.1615C2.99998 11.6343 2.99997 11.1795 3.03057 10.805C3.06287 10.4096 3.13419 10.0164 3.32698 9.63803C3.6146 9.07354 4.07354 8.6146 4.63803 8.32698C4.75735 8.26619 4.87814 8.21747 5.00001 8.17825L5 3.56811C4.99997 3.31573 4.99994 3.06993 5.01695 2.86178C5.03563 2.63318 5.0797 2.36345 5.21799 2.09202C5.40974 1.7157 5.7157 1.40974 6.09202 1.21799C6.36345 1.07969 6.63318 1.03563 6.86178 1.01695C7.06993 0.999943 7.31573 0.999973 7.56811 1ZM7.00001 8.00003C7.05304 8 7.10686 8 7.16146 8H16.8385C16.8931 8 16.947 8 17 8.00003V3.60001C17 3.30348 16.9992 3.14122 16.9897 3.02464L16.9886 3.01145L16.9754 3.01031C16.8588 3.00078 16.6965 3.00001 16.4 3.00001H7.60001C7.30348 3.00001 7.14123 3.00078 7.02464 3.01031L7.01145 3.01145L7.01031 3.02464C7.00078 3.14122 7.00001 3.30348 7.00001 3.60001V8.00003Z" fill="#801ED7"/>
</svg>
